Sources/FrostedUI/Resources/Icons.xcassets/rotate12.imageset/rotate-12.svg

<svg width="12" height="12" viewBox="0 0 12 12" fill="none" xmlns="http://www.w3.org/2000/svg" data-fui-icon="true">
  <path
    d="M4.5 6.2002C4.9141 6.20033 5.25 6.53606 5.25 6.9502C5.24988 7.36423 4.91403 7.70007 4.5 7.7002H2.85938C3.27797 8.70088 4.2615 9.74795 6.04297 9.74805C7.68217 9.74792 8.84339 8.88713 9.39258 7.68652C9.56479 7.30996 10.0091 7.14442 10.3857 7.31641C10.7624 7.48865 10.928 7.93292 10.7559 8.30957C9.96676 10.0349 8.27917 11.2479 6.04297 11.248C4.26559 11.248 3.03603 10.4974 2.25 9.55176V9.99805C2.24999 10.4122 1.9141 10.7479 1.5 10.748C1.0859 10.7479 0.75001 10.4122 0.75 9.99805V7.46875C0.750242 6.77496 1.30912 6.20053 2.01367 6.2002H4.5ZM5.95703 0.75C7.73441 0.750069 8.96397 1.50065 9.75 2.44629V2C9.75001 1.58587 10.0859 1.25013 10.5 1.25C10.9141 1.25013 11.25 1.58588 11.25 2V4.5293C11.2498 5.22309 10.6909 5.79751 9.98633 5.79785H7.5C7.0859 5.79772 6.75 5.46199 6.75 5.04785C6.75012 4.63382 7.08597 4.29798 7.5 4.29785H9.14062C8.72203 3.29716 7.7385 2.2501 5.95703 2.25C4.31783 2.25012 3.15661 3.11091 2.60742 4.31152C2.43521 4.68809 1.99087 4.85363 1.61426 4.68164C1.23763 4.5094 1.072 4.06513 1.24414 3.68848C2.03324 1.9631 3.72083 0.750127 5.95703 0.75Z"
    fill="currentColor"
  />
</svg>

<svg xmlns="http://www.w3.org/2000/svg" width="12" height="12" fill="none" data-fui-icon="true" viewBox="0 0 12 12"><path fill="currentColor" d="M4.5 6.2a.75.75 0 0 1 0 1.5H2.86c.418 1 1.402 2.048 3.183 2.048 1.64 0 2.8-.86 3.35-2.061a.75.75 0 1 1 1.363.623c-.79 1.725-2.477 2.938-4.713 2.938-1.777 0-3.007-.75-3.793-1.696v.446a.75.75 0 0 1-1.5 0v-2.53c0-.693.56-1.267 1.264-1.268zM5.957.75c1.777 0 3.007.75 3.793 1.696V2a.75.75 0 0 1 1.5 0v2.53c0 .693-.56 1.268-1.264 1.268H7.5a.75.75 0 0 1 0-1.5h1.64c-.418-1-1.402-2.048-3.183-2.048-1.64 0-2.8.86-3.35 2.062a.75.75 0 1 1-1.363-.624C2.034 1.963 3.721.75 5.957.75"/></svg>
